lib/flags/l/SV.svg

<svg xmlns="http://www.w3.org/2000/svg" fill="none" viewBox="0 0 32 24"><mask id="SV_svg__a" width="32" height="24" x="0" y="0" mask-type="alpha" maskUnits="userSpaceOnUse"><path fill="#fff" d="M0 0H32V24H0z"/></mask><g mask="url(#SV_svg__a)"><path fill="#F7FCFF" fill-rule="evenodd" d="M0 0V24H32V0H0Z" clip-rule="evenodd"/><mask id="SV_svg__b" width="32" height="24" x="0" y="0" mask-type="alpha" maskUnits="userSpaceOnUse"><path fill="#fff" fill-rule="evenodd" d="M0 0V24H32V0H0Z" clip-rule="evenodd"/></mask><g mask="url(#SV_svg__b)"><path fill="#3D58DB" fill-rule="evenodd" d="M0 0V8H32V0H0zM0 16V24H32V16H0z" clip-rule="evenodd"/><path stroke="#E8AA00" d="M19.4254 11.8583C19.4254 13.8696 17.7949 15.5001 15.7836 15.5001C13.7723 15.5001 12.1418 13.8696 12.1418 11.8583C12.1418 9.84704 13.7723 8.21655 15.7836 8.21655C17.7949 8.21655 19.4254 9.84704 19.4254 11.8583Z"/><path fill="#1E601B" fill-rule="evenodd" d="M13.8107 9.66235C13.8107 9.66235 12.8582 11.23 12.8582 12.3062C12.8582 13.3824 13.9983 14.7351 15.7922 14.7351C17.542 14.7351 18.7997 13.6899 18.8377 12.3062C18.8758 10.9225 17.8964 9.93753 17.8964 9.93753C17.8964 9.93753 18.4507 11.9296 18.1736 12.7369C17.8964 13.5441 16.9994 14.5208 15.7922 14.3964C14.585 14.2721 13.4394 12.7862 13.4394 12.3062C13.4394 11.8262 13.8107 9.66235 13.8107 9.66235Z" clip-rule="evenodd"/><path stroke="#188396" d="M14.1605 12.3283H17.3678"/><path stroke="#E8AA00" d="M14.459 11.8061H17.2185M17.0496 12.4113H14.5934L15.8327 10.355 17.0496 12.4113z"/></g></g></svg>

<svg xmlns="http://www.w3.org/2000/svg" fill="none" viewBox="0 0 32 24"><mask id="SV_svg__a" width="32" height="24" x="0" y="0" maskUnits="userSpaceOnUse"><path fill="#fff" d="M0 0h32v24H0z"/></mask><g mask="url(#SV_svg__a)"><path fill="#F7FCFF" fill-rule="evenodd" d="M0 0v24h32V0H0z" clip-rule="evenodd"/><mask id="SV_svg__b" width="32" height="24" x="0" y="0" maskUnits="userSpaceOnUse"><path fill="#fff" fill-rule="evenodd" d="M0 0v24h32V0H0z" clip-rule="evenodd"/></mask><g mask="url(#SV_svg__b)"><path fill="#3D58DB" fill-rule="evenodd" d="M0 0v8h32V0H0zm0 16v8h32v-8H0z" clip-rule="evenodd"/><path stroke="#E8AA00" d="M19.425 11.858a3.642 3.642 0 11-7.283 0 3.642 3.642 0 017.283 0z"/><path fill="#1E601B" fill-rule="evenodd" d="M13.81 9.662s-.952 1.568-.952 2.644 1.14 2.429 2.934 2.429c1.75 0 3.008-1.045 3.046-2.429.038-1.384-.942-2.369-.942-2.369s.555 1.993.278 2.8c-.278.807-1.175 1.784-2.382 1.66-1.207-.125-2.353-1.61-2.353-2.09 0-.48.372-2.645.372-2.645z" clip-rule="evenodd"/><path stroke="#188396" d="M14.16 12.328h3.208"/><path stroke="#E8AA00" d="M14.459 11.806h2.76m-.169.605h-2.457l1.24-2.056 1.217 2.056z"/></g></g></svg>
